svg/u1f469_1f3ff_200d_1f4bc.svg

<svg viewBox="0 0 128 128" xmlns="http://www.w3.org/2000/svg">
  <g id="hairGroup_1_">
    <path id="hair_10_" d="M64.57,2.87c-41.01,0-40.68,37.92-40.68,38.52c0,24.56,1.88,59.25,11.71,72.9 c3.9,5.41,11.43,5.71,11.43,5.71L64,119.98L80.97,120c0,0,7.54-0.3,11.43-5.71c9.83-13.65,11.71-48.34,11.71-72.9 C104.1,40.79,105.58,2.87,64.57,2.87z" fill="#232020"/>
    <radialGradient id="hairHighlights_2_" cx="64.0002" cy="69.5615" gradientTransform="matrix(1 0 0 -1.1901 0 141.2215)" gradientUnits="userSpaceOnUse" r="47.5315">
      <stop offset="0.7936" stop-color="#444140" stop-opacity="0"/>
      <stop offset="1" stop-color="#444140"/>
    </radialGradient>
    <path id="hairHighlights_1_" d="M64.57,2.87c-41.01,0-40.68,37.92-40.68,38.52 c0,24.56,1.88,59.25,11.71,72.9c3.9,5.41,11.43,5.71,11.43,5.71L64,119.98L80.97,120c0,0,7.54-0.3,11.43-5.71 c9.83-13.65,11.71-48.34,11.71-72.9C104.1,40.79,105.58,2.87,64.57,2.87z" fill="url(#hairHighlights_2_)"/>
  </g>
  <g id="shirt">
    <g id="XMLID_53_">
      <linearGradient id="SVGID_1_" gradientTransform="matrix(1 0 0 -1 0 128)" gradientUnits="userSpaceOnUse" x1="64" x2="64" y1="32.3935" y2="5.6022">
        <stop offset="3.200000e-03" stop-color="#E3F2FD"/>
        <stop offset="0.2252" stop-color="#D6ECFC"/>
        <stop offset="0.6348" stop-color="#B4DBFB"/>
        <stop offset="1" stop-color="#90CAF9"/>
      </linearGradient>
      <path d="M64.14,96c-0.05,0-0.09,0-0.14,0c-25.65,0.03-52,7.1-52,24.99V124h1.5H15h98h1.5h1.5v-3.01 C116,104.12,89.9,96,64.14,96z" fill="url(#SVGID_1_)"/>
    </g>
    <g>
      <linearGradient id="SVGID_2_" gradientTransform="matrix(1 0 0 -1 0 128)" gradientUnits="userSpaceOnUse" x1="64" x2="64" y1="15.884" y2="36.5426">
        <stop offset="0.5" stop-color="#F5F5F5"/>
        <stop offset="1" stop-color="#DADADA"/>
      </linearGradient>
      <path d="M75.65,90.8h-23.3l-6.97,7.53l8.2,12.71c0.9,1.39,2.89,1.5,3.93,0.21l6.48-8.01l6.48,8.01 c1.04,1.29,3.04,1.18,3.93-0.21l8.2-12.71L75.65,90.8z" fill="url(#SVGID_2_)"/>
      <g>
        <circle cx="64" cy="111.31" fill="#64B5F6" r="1.69"/>
        <circle cx="64" cy="119.31" fill="#64B5F6" r="1.69"/>
      </g>
    </g>
  </g>
  <g id="neck">
    <path d="M64,84.33h-9.08v9.98c0,4.51,3.7,8.17,8.26,8.17h1.65c4.56,0,8.26-3.66,8.26-8.17v-9.98L64,84.33z" fill="#3C2B24"/>
  </g>
  <g id="head">
    <path d="M64,16.04L64,16.04L64,16.04c-17.2,0-33.13,12.79-33.13,39.91c0,21.78,13.49,34.67,25.23,38.83 c2.8,0.99,5.5,1.49,7.9,1.49c2.38,0,5.07-0.49,7.85-1.47c11.76-4.14,25.28-17.03,25.28-38.84C97.13,28.83,81.2,16.04,64,16.04z" fill="#70534A"/>
  </g>
  <path id="nose" d="M67.81,68.06c-0.11-0.04-0.21-0.07-0.32-0.08H60.5c-0.11,0.01-0.21,0.04-0.32,0.08 c-0.63,0.26-0.98,0.91-0.68,1.61c0.3,0.7,1.69,2.66,4.49,2.66c2.8,0,4.2-1.96,4.49-2.66C68.79,68.97,68.45,68.31,67.81,68.06z" fill="#33251F"/>
  <g id="eyes">
    <ellipse cx="47.75" cy="58.87" fill="#1A1717" rx="4.87" ry="5.04"/>
    <ellipse cx="80.25" cy="58.87" fill="#1A1717" rx="4.87" ry="5.04"/>
  </g>
  <g id="eyebrows">
    <path d="M54.99,49.82c-0.93-1.23-3.07-3.01-7.23-3.01s-6.31,1.79-7.23,3.01c-0.41,0.54-0.31,1.17-0.02,1.55 c0.26,0.35,1.04,0.68,1.9,0.39s2.54-1.16,5.35-1.18c2.81,0.02,4.49,0.89,5.35,1.18c0.86,0.29,1.64-0.03,1.9-0.39 C55.29,50.99,55.39,50.36,54.99,49.82z" fill="#1A1717"/>
    <path d="M87.48,49.82c-0.93-1.23-3.07-3.01-7.23-3.01s-6.31,1.79-7.23,3.01c-0.41,0.54-0.31,1.17-0.02,1.55 c0.26,0.35,1.04,0.68,1.9,0.39s2.54-1.16,5.35-1.18c2.81,0.02,4.49,0.89,5.35,1.18c0.86,0.29,1.64-0.03,1.9-0.39 C87.79,50.99,87.89,50.36,87.48,49.82z" fill="#1A1717"/>
  </g>
  <path id="mouth" d="M72.32,76.14c-3.15,1.87-13.47,1.87-16.61,0c-1.81-1.07-3.65,0.57-2.9,2.21 c0.74,1.61,6.37,5.36,11.23,5.36s10.42-3.75,11.16-5.36C75.95,76.71,74.12,75.06,72.32,76.14z" fill="#1A1717"/>
  <g id="hairGroup">
    <path id="hair_5_" d="M64.57,2.87c-41.01,0-40.68,37.92-40.68,38.52c0,7.76,0.19,16.53,0.75,25.32l6.72-0.02 c-0.06-2.92,1.99-20.97,8.08-22.34c22.36-5.03,35.01-16.89,35.01-16.89c3.29,7.18,13.58,14.19,17.27,16.86 c3.03,2.19,4.27,18.55,4.21,22.38h7.4c0-0.05,0.02-0.1,0.02-0.16c0.56-8.75,0.74-17.46,0.74-25.17 C104.1,40.79,105.58,2.87,64.57,2.87z" fill="#232020"/>
    <radialGradient id="hairHighlights_3_" cx="64.3333" cy="65.537" gradientTransform="matrix(1 0 0 -1.2135 0 141.9952)" gradientUnits="userSpaceOnUse" r="49.788">
      <stop offset="0.7945" stop-color="#444140" stop-opacity="0"/>
      <stop offset="1" stop-color="#444140"/>
    </radialGradient>
    <path id="hairHighlights" d="M64.57,2.87c-41.01,0-40.68,37.92-40.68,38.52 c0,7.76,0.19,16.53,0.75,25.32l6.72-0.02c-0.06-2.92,1.99-20.97,8.08-22.34c22.36-5.03,35.01-16.89,35.01-16.89 c3.29,7.18,13.58,14.19,17.27,16.86c3.03,2.19,4.27,18.55,4.21,22.38h7.4c0-0.05,0.02-0.1,0.02-0.16 c0.56-8.75,0.74-17.46,0.74-25.17C104.1,40.79,105.58,2.87,64.57,2.87z" fill="url(#hairHighlights_3_)"/>
  </g>
</svg>

<svg viewBox="0 0 128 128" xmlns="http://www.w3.org/2000/svg">
  <defs>
    <radialGradient id="hairHighlights_2_" cx="64.0002" cy="-49.102058" gradientTransform="matrix(1 0 0 -1.1901 0 0)" gradientUnits="userSpaceOnUse" r="47.5315">
      <stop offset="0.7936" stop-color="#444140" stop-opacity="0"/>
      <stop offset="1" stop-color="#444140"/>
    </radialGradient>
    <radialGradient id="hairHighlights_3_" cx="64.3333" cy="-51.475938" gradientTransform="matrix(1 0 0 -1.2135 0 0)" gradientUnits="userSpaceOnUse" r="49.788">
      <stop offset="0.7945" stop-color="#444140" stop-opacity="0"/>
      <stop offset="1" stop-color="#444140"/>
    </radialGradient>
    <linearGradient id="SVGID_1_" gradientTransform="matrix(1 0 0 -1 0 0)" gradientUnits="userSpaceOnUse" x1="64" x2="64" y1="-95.6065" y2="-122.3978">
      <stop offset="3.200000e-03" stop-color="#E3F2FD"/>
      <stop offset="0.2252" stop-color="#D6ECFC"/>
      <stop offset="0.6348" stop-color="#B4DBFB"/>
      <stop offset="1" stop-color="#90CAF9"/>
    </linearGradient>
    <linearGradient id="SVGID_2_" gradientTransform="matrix(1 0 0 -1 0 0)" gradientUnits="userSpaceOnUse" x1="64" x2="64" y1="-112.116" y2="-91.4574">
      <stop offset="0.5" stop-color="#F5F5F5"/>
      <stop offset="1" stop-color="#DADADA"/>
    </linearGradient>
  </defs>
  <path id="hair_10_" d="M64.57,2.87 C23.56,2.87 23.89,40.79 23.89,41.39 C23.89,65.95 25.77,100.64 35.6,114.29 C39.5,119.7 47.03,120 47.03,120 L64,119.98 L80.97,120 C80.97,120 88.51,119.7 92.4,114.29 C102.23,100.64 104.11,65.95 104.11,41.39 C104.1,40.79 105.58,2.87 64.57,2.87 Z" fill="#232020"/>
  <path id="hairHighlights_1_" d="M64.57,2.87 C23.56,2.87 23.89,40.79 23.89,41.39 C23.89,65.95 25.77,100.64 35.6,114.29 C39.5,119.7 47.03,120 47.03,120 L64,119.98 L80.97,120 C80.97,120 88.51,119.7 92.4,114.29 C102.23,100.64 104.11,65.95 104.11,41.39 C104.1,40.79 105.58,2.87 64.57,2.87 Z" fill="url(#hairHighlights_2_)"/>
  <path d="M64.14,96 C64.09,96 64.05,96 64,96 C38.35,96.03 12,103.1 12,120.99 L12,124 L13.5,124 L15,124 L113,124 L114.5,124 L116,124 L116,120.99 C116,104.12 89.9,96 64.14,96 Z" fill="url(#SVGID_1_)"/>
  <path d="M75.65,90.8 L52.35,90.8 L45.38,98.33 L53.58,111.04 C54.48,112.43 56.47,112.54 57.51,111.25 L63.99,103.24 L70.47,111.25 C71.51,112.54 73.51,112.43 74.4,111.04 L82.6,98.33 L75.65,90.8 Z" fill="url(#SVGID_2_)"/>
  <path d="M65.69,111.31 A1.69 1.69 0 1 1 62.31,111.31 A1.69 1.69 0 1 1 65.69,111.31 Z" fill="#64B5F6"/>
  <path d="M65.69,119.31 A1.69 1.69 0 1 1 62.31,119.31 A1.69 1.69 0 1 1 65.69,119.31 Z" fill="#64B5F6"/>
  <path d="M64,84.33 L54.92,84.33 L54.92,94.31 C54.92,98.82 58.62,102.48 63.18,102.48 L64.83,102.48 C69.39,102.48 73.09,98.82 73.09,94.31 L73.09,84.33 L64,84.33 Z" fill="#3C2B24"/>
  <path d="M64,16.04 L64,16.04 L64,16.04 C46.8,16.04 30.87,28.83 30.87,55.95 C30.87,77.73 44.36,90.62 56.1,94.78 C58.9,95.77 61.6,96.27 64,96.27 C66.38,96.27 69.07,95.78 71.85,94.8 C83.61,90.66 97.13,77.77 97.13,55.96 C97.13,28.83 81.2,16.04 64,16.04 Z" fill="#70534A"/>
  <path id="nose" d="M67.81,68.06 C67.7,68.02 67.6,67.99 67.49,67.98 L60.5,67.98 C60.39,67.99 60.29,68.02 60.18,68.06 C59.55,68.32 59.2,68.97 59.5,69.67 C59.8,70.37 61.19,72.33 63.99,72.33 C66.79,72.33 68.19,70.37 68.48,69.67 C68.79,68.97 68.45,68.31 67.81,68.06 Z" fill="#33251F"/>
  <path d="M52.62,58.87 A4.87 5.04 0 1 1 42.88,58.87 A4.87 5.04 0 1 1 52.62,58.87 Z" fill="#1A1717"/>
  <path d="M85.12,58.87 A4.87 5.04 0 1 1 75.38,58.87 A4.87 5.04 0 1 1 85.12,58.87 Z" fill="#1A1717"/>
  <path d="M54.99,49.82 C54.06,48.59 51.92,46.81 47.76,46.81 C43.6,46.81 41.45,48.6 40.53,49.82 C40.12,50.36 40.22,50.99 40.51,51.37 C40.77,51.72 41.55,52.05 42.41,51.76 C43.27,51.47 44.95,50.6 47.76,50.58 C50.57,50.6 52.25,51.47 53.11,51.76 C53.97,52.05 54.75,51.73 55.01,51.37 C55.29,50.99 55.39,50.36 54.99,49.82 Z" fill="#1A1717"/>
  <path d="M87.48,49.82 C86.55,48.59 84.41,46.81 80.25,46.81 C76.09,46.81 73.94,48.6 73.02,49.82 C72.61,50.36 72.71,50.99 73,51.37 C73.26,51.72 74.04,52.05 74.9,51.76 C75.76,51.47 77.44,50.6 80.25,50.58 C83.06,50.6 84.74,51.47 85.6,51.76 C86.46,52.05 87.24,51.73 87.5,51.37 C87.79,50.99 87.89,50.36 87.48,49.82 Z" fill="#1A1717"/>
  <path id="mouth" d="M72.32,76.14 C69.17,78.01 58.85,78.01 55.71,76.14 C53.9,75.07 52.06,76.71 52.81,78.35 C53.55,79.96 59.18,83.71 64.04,83.71 C68.9,83.71 74.46,79.96 75.2,78.35 C75.95,76.71 74.12,75.06 72.32,76.14 Z" fill="#1A1717"/>
  <path id="hair_5_" d="M64.57,2.87 C23.56,2.87 23.89,40.79 23.89,41.39 C23.89,49.15 24.08,57.92 24.64,66.71 L31.36,66.69 C31.3,63.77 33.35,45.72 39.44,44.35 C61.8,39.32 74.45,27.46 74.45,27.46 C77.74,34.64 88.03,41.65 91.72,44.32 C94.75,46.51 95.99,62.87 95.93,66.7 L103.33,66.7 C103.33,66.65 103.35,66.6 103.35,66.54 C103.91,57.79 104.09,49.08 104.09,41.37 C104.1,40.79 105.58,2.87 64.57,2.87 Z" fill="#232020"/>
  <path id="hairHighlights" d="M64.57,2.87 C23.56,2.87 23.89,40.79 23.89,41.39 C23.89,49.15 24.08,57.92 24.64,66.71 L31.36,66.69 C31.3,63.77 33.35,45.72 39.44,44.35 C61.8,39.32 74.45,27.46 74.45,27.46 C77.74,34.64 88.03,41.65 91.72,44.32 C94.75,46.51 95.99,62.87 95.93,66.7 L103.33,66.7 C103.33,66.65 103.35,66.6 103.35,66.54 C103.91,57.79 104.09,49.08 104.09,41.37 C104.1,40.79 105.58,2.87 64.57,2.87 Z" fill="url(#hairHighlights_3_)"/>
</svg>
